communes/754.svg

<?xml version="1.0" encoding="UTF-8" standalone="no"?>
<svg
   xmlns:dc="http://purl.org/dc/elements/1.1/"
   xmlns:cc="http://web.resource.org/cc/"
   xmlns:rdf="http://www.w3.org/1999/02/22-rdf-syntax-ns#"
   xmlns:svg="http://www.w3.org/2000/svg"
   xmlns="http://www.w3.org/2000/svg"
   xmlns:xlink="http://www.w3.org/1999/xlink"
   xmlns:sodipodi="http://sodipodi.sourceforge.net/DTD/sodipodi-0.dtd"
   xmlns:inkscape="http://www.inkscape.org/namespaces/inkscape"
   height="763"
   width="603"
   version="1.0"
   id="svg20"
   sodipodi:version="0.32"
   inkscape:version="0.44.1"
   sodipodi:docname="Walperswil-coat of arms.svg"
   sodipodi:docbase="F:\Mis Documentos\Mis imágenes\Encyclopédie\Escudos de Suiza">
  <metadata
     id="metadata31">
    <rdf:RDF>
      <cc:Work
         rdf:about="">
        <dc:format>image/svg+xml</dc:format>
        <dc:type
           rdf:resource="http://purl.org/dc/dcmitype/StillImage" />
        <dc:date>07-AUG-2006</dc:date>
        <dc:creator>
          <cc:Agent>
            <dc:title>Jérôme BLUM (wagner51)</dc:title>
          </cc:Agent>
        </dc:creator>
        <cc:license
           rdf:resource="http://creativecommons.org/licenses/GPL/2.0/" />
        <dc:coverage />
        <dc:description>Gabarit pour le Projet:Blasons de WIkipédia</dc:description>
        <dc:subject>
          <rdf:Bag>
            <rdf:li>blason suisse modèle gabarit projet blasons</rdf:li>
          </rdf:Bag>
        </dc:subject>
        <dc:language>fr</dc:language>
        <dc:title>Gabrit d'un blason suisse</dc:title>
      </cc:Work>
      <cc:License
         rdf:about="http://creativecommons.org/licenses/GPL/2.0/">
        <cc:permits
           rdf:resource="http://web.resource.org/cc/Reproduction" />
        <cc:permits
           rdf:resource="http://web.resource.org/cc/Distribution" />
        <cc:requires
           rdf:resource="http://web.resource.org/cc/Notice" />
        <cc:permits
           rdf:resource="http://web.resource.org/cc/DerivativeWorks" />
        <cc:requires
           rdf:resource="http://web.resource.org/cc/ShareAlike" />
        <cc:requires
           rdf:resource="http://web.resource.org/cc/SourceCode" />
      </cc:License>
    </rdf:RDF>
  </metadata>
  <defs
     id="defs29">
    <linearGradient
       id="linearGradient2893">
      <stop
         style="stop-color:#ffffff;stop-opacity:0.3137255;"
         offset="0"
         id="stop2895" />
      <stop
         id="stop2897"
         offset="0.19"
         style="stop-color:#ffffff;stop-opacity:0.25098041;" />
      <stop
         style="stop-color:#6b6b6b;stop-opacity:0.1254902;"
         offset="0.60000002"
         id="stop2901" />
      <stop
         style="stop-color:#000000;stop-opacity:0.1254902;"
         offset="1"
         id="stop2899" />
    </linearGradient>
    <linearGradient
       id="linearGradient2955">
      <stop
         style="stop-color:white;stop-opacity:0;"
         offset="0"
         id="stop2965" />
      <stop
         style="stop-color:black;stop-opacity:0.64583331;"
         offset="1"
         id="stop2959" />
    </linearGradient>
    <radialGradient
       inkscape:collect="always"
       xlink:href="#linearGradient2893"
       id="radialGradient3236"
       gradientUnits="userSpaceOnUse"
       gradientTransform="matrix(1.215027,1.531577e-24,1.464684e-23,1.266667,-839.1924,-490.4894)"
       cx="858.04236"
       cy="579.93323"
       fx="858.04236"
       fy="579.93323"
       r="300" />
  </defs>
  <sodipodi:namedview
     inkscape:window-height="682"
     inkscape:window-width="1024"
     inkscape:pageshadow="2"
     inkscape:pageopacity="0.0"
     guidetolerance="10.0"
     gridtolerance="10.0"
     objecttolerance="10.0"
     borderopacity="1.0"
     bordercolor="#666666"
     pagecolor="#ffffff"
     id="base"
     inkscape:zoom="0.48301887"
     inkscape:cx="735.66209"
     inkscape:cy="417.2374"
     inkscape:window-x="-4"
     inkscape:window-y="-4"
     inkscape:current-layer="layer2"
     showgrid="true" />
  <desc
     id="desc22">Coat of Arms of Canton of Freiburg (Fribourg)</desc>
  <g
     inkscape:groupmode="layer"
     id="layer1"
     inkscape:label="Fond écu"
     sodipodi:insensitive="true">
    <path
       id="path1899"
       d="M 1.5,1.49998 L 1.5,460.3679 C 1.5,626.6785 135.81456,761.5 301.49999,761.5 C 467.18543,761.5 601.5,626.6785 601.5,460.3679 L 601.5,1.49998 L 1.5,1.49998 z "
       style="fill:#2b5df2;fill-opacity:1" />
  </g>
  <g
     inkscape:groupmode="layer"
     id="layer2"
     inkscape:label="Meubles"
     sodipodi:insensitive="true">
    <g
       id="g10225"
       transform="matrix(4.175695,0,0,4.175695,-2603.023,-1123.684)">
      <g
         id="g8415">
        <path
           sodipodi:nodetypes="ccccccc"
           id="path4829"
           d="M 733.36598,313 L 720.43812,313 L 663.24222,386.90205 C 651.26607,359.49534 651.85255,338.27617 651.17009,314.63402 L 625.07214,315 C 629.70396,362.9012 639.62803,387.95537 658.60821,409.09795 L 733.36598,313 z "
           style="fill:white;fill-opacity:1;fill-rule:evenodd;stroke:black;stroke-width:1px;stroke-linecap:butt;stroke-linejoin:miter;stroke-opacity:1" />
        <path
           style="fill:white;fill-opacity:1;fill-rule:evenodd;stroke:black;stroke-width:1px;stroke-linecap:butt;stroke-linejoin:miter;stroke-opacity:1"
           d="M 657.07214,313 L 670,313 L 727.1959,386.90205 C 739.17205,359.49534 738.58557,338.27617 739.26803,314.63402 L 765.36598,315 C 760.73416,362.9012 748.24821,387.2234 729.26803,408.36598 L 657.07214,313 z "
           id="path3942"
           sodipodi:nodetypes="ccccccc" />
      </g>
      <g
         id="g9312">
        <path
           sodipodi:type="arc"
           style="fill:#fcef3c;fill-opacity:1;fill-rule:evenodd;stroke:black;stroke-width:1;stroke-linecap:square;stroke-linejoin:miter;stroke-miterlimit:4;stroke-dasharray:none;stroke-opacity:1"
           id="path4831"
           sodipodi:cx="684.2052"
           sodipodi:cy="293.07782"
           sodipodi:rx="10.796498"
           sodipodi:ry="10.247524"
           d="M 695.0017 293.07782 A 10.796498 10.247524 0 1 1  673.4087,293.07782 A 10.796498 10.247524 0 1 1  695.0017 293.07782 z"
           transform="matrix(0.884195,0,0,0.931563,75.02918,18.97955)" />
        <path
           transform="matrix(0.884195,0,0,0.931563,105.0292,18.97955)"
           d="M 695.0017 293.07782 A 10.796498 10.247524 0 1 1  673.4087,293.07782 A 10.796498 10.247524 0 1 1  695.0017 293.07782 z"
           sodipodi:ry="10.247524"
           sodipodi:rx="10.796498"
           sodipodi:cy="293.07782"
           sodipodi:cx="684.2052"
           id="path5718"
           style="fill:#fcef3c;fill-opacity:1;fill-rule:evenodd;stroke:black;stroke-width:1;stroke-linecap:square;stroke-linejoin:miter;stroke-miterlimit:4;stroke-dasharray:none;stroke-opacity:1"
           sodipodi:type="arc" />
        <rect
           style="fill:#fcef3c;fill-opacity:1;fill-rule:evenodd;stroke:black;stroke-width:1;stroke-linecap:square;stroke-linejoin:miter;stroke-miterlimit:4;stroke-dasharray:none;stroke-opacity:1"
           id="rect6615"
           width="12.857448"
           height="10.239158"
           x="688"
           y="308"
           rx="5.9859104"
           ry="10.239158" />
        <path
           sodipodi:type="arc"
           style="fill:#fcef3c;fill-opacity:1;fill-rule:evenodd;stroke:black;stroke-width:1;stroke-linecap:square;stroke-linejoin:miter;stroke-miterlimit:4;stroke-dasharray:none;stroke-opacity:1"
           id="path5720"
           sodipodi:cx="684.2052"
           sodipodi:cy="293.07782"
           sodipodi:rx="10.796498"
           sodipodi:ry="10.247524"
           d="M 695.0017 293.07782 A 10.796498 10.247524 0 1 1  673.4087,293.07782 A 10.796498 10.247524 0 1 1  695.0017 293.07782 z"
           transform="matrix(0.884195,0,0,0.931563,99.0292,34.97955)" />
        <path
           transform="matrix(0.884195,0,0,0.931563,80.02918,34.97955)"
           d="M 695.0017 293.07782 A 10.796498 10.247524 0 1 1  673.4087,293.07782 A 10.796498 10.247524 0 1 1  695.0017 293.07782 z"
           sodipodi:ry="10.247524"
           sodipodi:rx="10.796498"
           sodipodi:cy="293.07782"
           sodipodi:cx="684.2052"
           id="path5722"
           style="fill:#fcef3c;fill-opacity:1;fill-rule:evenodd;stroke:black;stroke-width:1;stroke-linecap:square;stroke-linejoin:miter;stroke-miterlimit:4;stroke-dasharray:none;stroke-opacity:1"
           sodipodi:type="arc" />
        <path
           style="fill:#fcef3c;fill-opacity:1;fill-rule:evenodd;stroke:black;stroke-width:1px;stroke-linecap:butt;stroke-linejoin:miter;stroke-opacity:1"
           d="M 687,277 L 703,277 C 695.06338,283.9048 697.4084,294.93543 695,304 C 692.40346,294.96646 695.1162,284.02621 687,277 z "
           id="path5728"
           sodipodi:nodetypes="cccc" />
        <path
           sodipodi:type="arc"
           style="fill:#fcef3c;fill-opacity:1;fill-rule:evenodd;stroke:black;stroke-width:1;stroke-linecap:square;stroke-linejoin:miter;stroke-miterlimit:4;stroke-dasharray:none;stroke-opacity:1"
           id="path5724"
           sodipodi:cx="684.2052"
           sodipodi:cy="293.07782"
           sodipodi:rx="10.796498"
           sodipodi:ry="10.247524"
           d="M 695.0017 293.07782 A 10.796498 10.247524 0 1 1  673.4087,293.07782 A 10.796498 10.247524 0 1 1  695.0017 293.07782 z"
           transform="matrix(0.884195,0,0,0.931563,90.02919,23.97955)" />
        <path
           sodipodi:type="arc"
           style="fill:#fcef3c;fill-opacity:1;fill-rule:evenodd;stroke:black;stroke-width:1;stroke-linecap:square;stroke-linejoin:miter;stroke-miterlimit:4;stroke-dasharray:none;stroke-opacity:1"
           id="path5726"
           sodipodi:cx="684.2052"
           sodipodi:cy="293.07782"
           sodipodi:rx="10.796498"
           sodipodi:ry="10.247524"
           d="M 695.0017 293.07782 A 10.796498 10.247524 0 1 1  673.4087,293.07782 A 10.796498 10.247524 0 1 1  695.0017 293.07782 z"
           transform="matrix(0.884195,0,0,0.931563,90.02918,49.97955)" />
      </g>
      <g
         id="g10215">
        <path
           transform="matrix(0.884195,0,0,0.931563,75.02918,130.9795)"
           d="M 695.0017 293.07782 A 10.796498 10.247524 0 1 1  673.4087,293.07782 A 10.796498 10.247524 0 1 1  695.0017 293.07782 z"
           sodipodi:ry="10.247524"
           sodipodi:rx="10.796498"
           sodipodi:cy="293.07782"
           sodipodi:cx="684.2052"
           id="path7514"
           style="fill:#fcef3c;fill-opacity:1;fill-rule:evenodd;stroke:black;stroke-width:1;stroke-linecap:square;stroke-linejoin:miter;stroke-miterlimit:4;stroke-dasharray:none;stroke-opacity:1"
           sodipodi:type="arc" />
        <path
           sodipodi:type="arc"
           style="fill:#fcef3c;fill-opacity:1;fill-rule:evenodd;stroke:black;stroke-width:1;stroke-linecap:square;stroke-linejoin:miter;stroke-miterlimit:4;stroke-dasharray:none;stroke-opacity:1"
           id="path7516"
           sodipodi:cx="684.2052"
           sodipodi:cy="293.07782"
           sodipodi:rx="10.796498"
           sodipodi:ry="10.247524"
           d="M 695.0017 293.07782 A 10.796498 10.247524 0 1 1  673.4087,293.07782 A 10.796498 10.247524 0 1 1  695.0017 293.07782 z"
           transform="matrix(0.884195,0,0,0.931563,105.0292,130.9795)" />
        <rect
           ry="10.239158"
           rx="5.9859104"
           y="420"
           x="688"
           height="10.239158"
           width="12.857448"
           id="rect7518"
           style="fill:#fcef3c;fill-opacity:1;fill-rule:evenodd;stroke:black;stroke-width:1;stroke-linecap:square;stroke-linejoin:miter;stroke-miterlimit:4;stroke-dasharray:none;stroke-opacity:1" />
        <path
           transform="matrix(0.884195,0,0,0.931563,99.0292,146.9796)"
           d="M 695.0017 293.07782 A 10.796498 10.247524 0 1 1  673.4087,293.07782 A 10.796498 10.247524 0 1 1  695.0017 293.07782 z"
           sodipodi:ry="10.247524"
           sodipodi:rx="10.796498"
           sodipodi:cy="293.07782"
           sodipodi:cx="684.2052"
           id="path7520"
           style="fill:#fcef3c;fill-opacity:1;fill-rule:evenodd;stroke:black;stroke-width:1;stroke-linecap:square;stroke-linejoin:miter;stroke-miterlimit:4;stroke-dasharray:none;stroke-opacity:1"
           sodipodi:type="arc" />
        <path
           sodipodi:type="arc"
           style="fill:#fcef3c;fill-opacity:1;fill-rule:evenodd;stroke:black;stroke-width:1;stroke-linecap:square;stroke-linejoin:miter;stroke-miterlimit:4;stroke-dasharray:none;stroke-opacity:1"
           id="path7522"
           sodipodi:cx="684.2052"
           sodipodi:cy="293.07782"
           sodipodi:rx="10.796498"
           sodipodi:ry="10.247524"
           d="M 695.0017 293.07782 A 10.796498 10.247524 0 1 1  673.4087,293.07782 A 10.796498 10.247524 0 1 1  695.0017 293.07782 z"
           transform="matrix(0.884195,0,0,0.931563,80.02918,146.9796)" />
        <path
           sodipodi:nodetypes="cccc"
           id="path7528"
           d="M 687,389 L 703,389 C 695.06338,395.9048 697.4084,406.93543 695,416 C 692.40346,406.96646 695.1162,396.02621 687,389 z "
           style="fill:#fcef3c;fill-opacity:1;fill-rule:evenodd;stroke:black;stroke-width:1px;stroke-linecap:butt;stroke-linejoin:miter;stroke-opacity:1" />
        <path
           transform="matrix(0.884195,0,0,0.931563,90.02919,135.9795)"
           d="M 695.0017 293.07782 A 10.796498 10.247524 0 1 1  673.4087,293.07782 A 10.796498 10.247524 0 1 1  695.0017 293.07782 z"
           sodipodi:ry="10.247524"
           sodipodi:rx="10.796498"
           sodipodi:cy="293.07782"
           sodipodi:cx="684.2052"
           id="path7524"
           style="fill:#fcef3c;fill-opacity:1;fill-rule:evenodd;stroke:black;stroke-width:1;stroke-linecap:square;stroke-linejoin:miter;stroke-miterlimit:4;stroke-dasharray:none;stroke-opacity:1"
           sodipodi:type="arc" />
        <path
           transform="matrix(0.884195,0,0,0.931563,90.02918,161.9796)"
           d="M 695.0017 293.07782 A 10.796498 10.247524 0 1 1  673.4087,293.07782 A 10.796498 10.247524 0 1 1  695.0017 293.07782 z"
           sodipodi:ry="10.247524"
           sodipodi:rx="10.796498"
           sodipodi:cy="293.07782"
           sodipodi:cx="684.2052"
           id="path7526"
           style="fill:#fcef3c;fill-opacity:1;fill-rule:evenodd;stroke:black;stroke-width:1;stroke-linecap:square;stroke-linejoin:miter;stroke-miterlimit:4;stroke-dasharray:none;stroke-opacity:1"
           sodipodi:type="arc" />
      </g>
    </g>
  </g>
  <g
     inkscape:groupmode="layer"
     id="layer3"
     inkscape:label="Reflet final"
     style="display:inline"
     sodipodi:insensitive="true">
    <path
       style="fill:url(#radialGradient3236);fill-opacity:1"
       d="M 1.5,1.5 L 1.5,460.3679 C 1.5,626.67854 135.81454,761.5 301.49993,761.5 C 467.1854,761.5 601.5,626.67854 601.5,460.3679 L 601.5,1.5 L 1.5,1.5 z "
       id="path2346" />
  </g>
  <g
     inkscape:groupmode="layer"
     id="layer4"
     inkscape:label="Contour final"
     style="display:inline"
     sodipodi:insensitive="true">
    <path
       style="fill:none;fill-opacity:1;stroke:#000000;stroke-width:3;stroke-miterlimit:4;stroke-dasharray:none;stroke-opacity:1"
       d="M 1.5,1.5 L 1.5,460.36794 C 1.5,626.67854 135.81454,761.5 301.49993,761.5 C 467.1854,761.5 601.5,626.67854 601.5,460.36794 L 601.5,1.5 L 1.5,1.5 z "
       id="path3239" />
  </g>
</svg>

<?xml version="1.0" encoding="UTF-8"?>
<svg version="1.0" viewBox="0 0 603 763" xmlns="http://www.w3.org/2000/svg" xmlns:cc="http://web.resource.org/cc/" xmlns:dc="http://purl.org/dc/elements/1.1/" xmlns:rdf="http://www.w3.org/1999/02/22-rdf-syntax-ns#" xmlns:xlink="http://www.w3.org/1999/xlink">
<metadata>
<rdf:RDF>
<cc:Work rdf:about="">
<dc:format>image/svg+xml</dc:format>
<dc:type rdf:resource="http://purl.org/dc/dcmitype/StillImage"/>
<dc:date>07-AUG-2006</dc:date>
<dc:creator>
<cc:Agent>
<dc:title>Jérôme BLUM (wagner51)</dc:title>
</cc:Agent>
</dc:creator>
<cc:license rdf:resource="http://creativecommons.org/licenses/GPL/2.0/"/>
<dc:coverage/>
<dc:description>Gabarit pour le Projet:Blasons de WIkipédia</dc:description>
<dc:subject>
<rdf:Bag>
<rdf:li>blason suisse modèle gabarit projet blasons</rdf:li>
</rdf:Bag>
</dc:subject>
<dc:language>fr</dc:language>
<dc:title>Gabrit d'un blason suisse</dc:title>
</cc:Work>
<cc:License rdf:about="http://creativecommons.org/licenses/GPL/2.0/">
<cc:permits rdf:resource="http://web.resource.org/cc/Reproduction"/>
<cc:permits rdf:resource="http://web.resource.org/cc/Distribution"/>
<cc:requires rdf:resource="http://web.resource.org/cc/Notice"/>
<cc:permits rdf:resource="http://web.resource.org/cc/DerivativeWorks"/>
<cc:requires rdf:resource="http://web.resource.org/cc/ShareAlike"/>
<cc:requires rdf:resource="http://web.resource.org/cc/SourceCode"/>
</cc:License>
</rdf:RDF>
</metadata>
<defs>
<radialGradient id="a" cx="858.04" cy="579.93" r="300" gradientTransform="matrix(1.215 1.5316e-24 1.4647e-23 1.2667 -839.19 -490.49)" gradientUnits="userSpaceOnUse">
<stop stop-color="#fff" stop-opacity=".31373" offset="0"/>
<stop stop-color="#fff" stop-opacity=".25098" offset=".19"/>
<stop stop-color="#6b6b6b" stop-opacity=".12549" offset=".6"/>
<stop stop-opacity=".12549" offset="1"/>
</radialGradient>
</defs>
<desc>Coat of Arms of Canton of Freiburg (Fribourg)</desc>
<path d="m1.5 1.5v458.87c0 166.31 134.31 301.13 300 301.13 165.69 0 300-134.82 300-301.13v-458.87h-600z" fill="#2b5df2"/>
<g transform="matrix(4.1757 0 0 4.1757 -2603 -1123.7)" fill-rule="evenodd" stroke="#000">
<g fill="#fff" stroke-width="1px">
<path d="m733.37 313h-12.928l-57.196 73.902c-11.976-27.407-11.39-48.626-12.072-72.268l-26.098 0.36598c4.6318 47.901 14.556 72.955 33.536 94.098l74.758-96.098z"/>
<path d="m657.07 313h12.928l57.196 73.902c11.976-27.407 11.39-48.626 12.072-72.268l26.098 0.36598c-4.6318 47.901-17.118 72.223-36.098 93.366l-72.196-95.366z"/>
</g>
<g fill="#fcef3c">
<path transform="matrix(.8842 0 0 .93156 75.029 18.98)" d="m695 293.08a10.796 10.248 0 1 1-21.593 0 10.796 10.248 0 1 1 21.593 0z" stroke-linecap="square"/>
<path transform="matrix(.8842 0 0 .93156 105.03 18.98)" d="m695 293.08a10.796 10.248 0 1 1-21.593 0 10.796 10.248 0 1 1 21.593 0z" stroke-linecap="square"/>
<rect x="688" y="308" width="12.857" height="10.239" rx="5.9859" ry="10.239" stroke-linecap="square"/>
<path transform="matrix(.8842 0 0 .93156 99.029 34.98)" d="m695 293.08a10.796 10.248 0 1 1-21.593 0 10.796 10.248 0 1 1 21.593 0z" stroke-linecap="square"/>
<path transform="matrix(.8842 0 0 .93156 80.029 34.98)" d="m695 293.08a10.796 10.248 0 1 1-21.593 0 10.796 10.248 0 1 1 21.593 0z" stroke-linecap="square"/>
<path d="m687 277h16c-7.9366 6.9048-5.5916 17.935-8 27-2.5965-9.0335 0.1162-19.974-8-27z" stroke-width="1px"/>
<path transform="matrix(.8842 0 0 .93156 90.029 23.98)" d="m695 293.08a10.796 10.248 0 1 1-21.593 0 10.796 10.248 0 1 1 21.593 0z" stroke-linecap="square"/>
<path transform="matrix(.8842 0 0 .93156 90.029 49.98)" d="m695 293.08a10.796 10.248 0 1 1-21.593 0 10.796 10.248 0 1 1 21.593 0z" stroke-linecap="square"/>
</g>
<g fill="#fcef3c">
<path transform="matrix(.8842 0 0 .93156 75.029 130.98)" d="m695 293.08a10.796 10.248 0 1 1-21.593 0 10.796 10.248 0 1 1 21.593 0z" stroke-linecap="square"/>
<path transform="matrix(.8842 0 0 .93156 105.03 130.98)" d="m695 293.08a10.796 10.248 0 1 1-21.593 0 10.796 10.248 0 1 1 21.593 0z" stroke-linecap="square"/>
<rect x="688" y="420" width="12.857" height="10.239" rx="5.9859" ry="10.239" stroke-linecap="square"/>
<path transform="matrix(.8842 0 0 .93156 99.029 146.98)" d="m695 293.08a10.796 10.248 0 1 1-21.593 0 10.796 10.248 0 1 1 21.593 0z" stroke-linecap="square"/>
<path transform="matrix(.8842 0 0 .93156 80.029 146.98)" d="m695 293.08a10.796 10.248 0 1 1-21.593 0 10.796 10.248 0 1 1 21.593 0z" stroke-linecap="square"/>
<path d="m687 389h16c-7.9366 6.9048-5.5916 17.935-8 27-2.5965-9.0335 0.1162-19.974-8-27z" stroke-width="1px"/>
<path transform="matrix(.8842 0 0 .93156 90.029 135.98)" d="m695 293.08a10.796 10.248 0 1 1-21.593 0 10.796 10.248 0 1 1 21.593 0z" stroke-linecap="square"/>
<path transform="matrix(.8842 0 0 .93156 90.029 161.98)" d="m695 293.08a10.796 10.248 0 1 1-21.593 0 10.796 10.248 0 1 1 21.593 0z" stroke-linecap="square"/>
</g>
</g>
<g>
<path d="m1.5 1.5v458.87c0 166.31 134.31 301.13 300 301.13 165.69 0 300-134.82 300-301.13v-458.87h-600z" fill="url(#a)"/>
<path d="m1.5 1.5v458.87c0 166.31 134.31 301.13 300 301.13 165.69 0 300-134.82 300-301.13v-458.87h-600z" fill="none" stroke="#000" stroke-width="3"/>
</g>
</svg>
